X: 20213
Q: "Lively dancing time."
M: 6/8
L: 1/8
K: G
d |\
d>ed B2G | A2F D2F | G2B dcB | (B3 A2)c |\
d>ed B2G | g2e c2e | edB dcA | G3 G2 :|\
d>ed B2G | g2e cde | edB dcA | G3 G2d |\
d>ed B2G | A2F D2F | GAB dcB | (B3 A2)d |\
d>ed B2G | g2e c2e | d2B dcB | G3 G2 |]


